X:183
T:Cameronian Rant, The
M:C|
L:1/8
B:Thompson's Compleat Collection of 200 Favourite Country Dances, vol. 1 (London, 1757)
Z:Transcribed and edited by Flynn Titford-Mock, 2007
Z:abc's:AK/Fiddler's Companion
K:F
f|cF F/F/F cFcF|AF F/F/F c2 Ac|BG G/G/G BGBG|BG G/G/G c2 A:|
|:F(ff)g fdcA|F(ff)g fdcA|G(gg)a gfed|G(gg)a gfed|
F(ff)g fdcA|F(ff)g edcf|(e/f/g) dg (e/f/g) dg|(e/f/g) dg e2 f:|

